X:585
T: DORT OBN AUF JENEM BERGE
N: E0546
O: Europa, Mitteleuropa, Deutschland, Pommern
R: Liebes - Lied
M: 2/4
L: 1/16
K: G
D2 | G3DB2AG | GFF2z2
D2 | A2D2c2BA | B4z2
B2 | d2B2d3D | D2c2c3
A | c2A2c2D2 | D2B2B2
cA | G2G2AGA2 | B6
cA | G2GBd3D | G4z2

